!!!COM: Bach, Johann Sebastian
!!!OPR: Joh. Seb. Bachs vierstimmige Choralgesänge
!!!XEN: Four-part Chorales
!!!OTL: Chorale 137. Nun lob', mein' Seel', den Herren
!!!SCT: BWV 390
!!!SCA: Thematisch-systematisches Verzeichnis der musikalischen Werke Johann Sebastian Bach: Bach-Werke-Verzeichnis (Schmieder)
!!!YOR: Bach Gesellschaft Edition xxxix
!!!ENC: Steven Rasmussen
!!!CDT: 1685/3//-1750/7/28/
!!!OCY: Deutschland
!!!YEC: Copyright (c) 1994, 2000 Center for Computer Assisted Research in the Humanities
!!!YEM: Rights to all derivative editions reserved
!!!YEN: United States of America
**kern	**kern	**silbe	**kern	**silbe	**kern	**silbe
*I:[BASSO]	*I:[TENORE]	*I:[TENORE]	*I:[ALTO]	*I:[ALTO]	*I:[SOPRANO]	*I:[SOPRANO]
*>[A,A,B]	*>[A,A,B]	*	*>[A,A,B]	*	*>[A,A,B]	*
*>A	*>A	*	*>A	*	*>A	*
*clefF4	*clefGv2	*	*clefG2	*	*clefG2	*
*k[]	*k[]	*	*k[]	*	*k[]	*
*C:	*C:	*	*C:	*	*C:	*
*M3/4	*M3/4	*	*M3/4	*	*M3/4	*
4c	4e	.	4g	.	4cc	Nunsein'
=1	=1	=1	=1	=1	=1	=1
2A	4e	.	2a	.	2cc	lob',Wohl-
.	4f	.	.	.	.	.
4E	4g	.	4g	.	4b	mein'-tat
=2	=2	=2	=2	=2	=2	=2
2F	2f	.	4c	.	2a	Seel',tut
.	.	.	4d	.	.	.
4C	4e	.	8eL	.	4g	dender
.	.	.	8fJ	.	.	.
=3	=3	=3	=3	=3	=3	=3
4E	2c	.	4g	.	4cc	Her-meh-
4F	.	.	4a	.	2dd	.
4G	4B	.	4g	.	.	.
=4	=4	=4	=4	=4	=4	=4
2C;	2c;	.	2g;	.	2ee;	-ren,-ren,
4c	4c	.	4g	.	4ee	wasver-
=5	=5	=5	=5	=5	=5	=5
4G#	4B	.	4b	.	2ee	in-giss
4F#	4c	.	4a	.	.	.
4E	4d	.	4g#	.	4ee	mires
=6	=6	=6	=6	=6	=6	=6
4A	2c	.	4a	.	2ee	istnicht,
4G	.	.	8eL	.	.	.
.	.	.	8fJ	.	.	.
4F	4B	.	4g	.	4dd	deno
=7	=7	=7	=7	=7	=7	=7
4E	2c	.	4g	.	8ccL	Na-Her-
.	.	.	.	.	8ddJ	.
(4F	.	.	(4a	.	(4.ddT	-men-ze
4G)	4B	.	4g)	.	.	.
.	.	.	.	.	8cc)	.
=8	=8	=8	=8	=8	=8	=8
2C;	2G;	.	2e;	.	2cc;	sein,mein,
=:|!	=:|!	=:|!	=:|!	=:|!	=:|!	=:|!
*>B	*>B	*	*>B	*	*>B	*
4C	4G	.	4e	.	4cc	hat
=9	=9	=9	=9	=9	=9	=9
2F	4A	.	2f	.	4cc	dir
.	4B	.	.	.	4dd	.
4c	4c	.	4e	.	4ee	dein'
=10	=10	=10	=10	=10	=10	=10
4B	8dL	.	4g#	.	2dd	SÃ¼nd'
.	8eJ	.	.	.	.	.
4A	4f	.	4a	.	.	.
4G#	4e	.	4b	.	4ee	ver-
=11	=11	=11	=11	=11	=11	=11
4A	2e	.	2a	.	4cc	-ge-
2E	.	.	.	.	8bL	.
.	.	.	.	.	8aJ	.
.	4d	.	4g#	.	4b	.
=12	=12	=12	=12	=12	=12	=12
2F;	2c;	.	2a;	.	2a;	-ben
4F	4c	.	8fL	.	4a	und
.	.	.	8eJ	.	.	.
=13	=13	=13	=13	=13	=13	=13
2F#	2A	.	2d	.	4dd	heilt
.	.	.	.	.	4cc	.
4G	4G	.	4d	.	4b	dein'
=14	=14	=14	=14	=14	=14	=14
4C	4G	.	4e	.	4cc	Schwach-
2D	2F#	.	4d	.	2a	-heit
.	.	.	4c	.	.	.
=15	=15	=15	=15	=15	=15	=15
2GG;	2G;	.	2B;	.	2g;	gross,
4E	4B	.	4e	.	4g	er-
=16	=16	=16	=16	=16	=16	=16
4A	4c	.	2e	.	2cc	-rett'
4B	4d	.	.	.	.	.
4c	4e	.	4a	.	4cc	dein
=17	=17	=17	=17	=17	=17	=17
4B	4d	.	2g	.	4dd	ar-
4A	4c	.	.	.	4ee	.
4G	4B	.	4g	.	4ff	-mes
=18	=18	=18	=18	=18	=18	=18
2c	2c	.	4g	.	4ee	Le-
.	.	.	4f	.	4dd	.
4G#	4B	.	4e	.	4ee	.
=19	=19	=19	=19	=19	=19	=19
2A;	2c;	.	2e;	.	2cc;	-ben,
4F	4f	.	4a	.	4cc	nimmt
=20	=20	=20	=20	=20	=20	=20
(4D	2A	.	2a	.	2ff	dich
4E)	.	.	.	.	.	.
4F	4d	.	4a	.	4ff	in
=21	=21	=21	=21	=21	=21	=21
4G	2d	.	4b-	.	4ee	sei-
2A	.	.	4f	.	4dd	.
.	4c#	.	4g	.	4ee	-nen
=22	=22	=22	=22	=22	=22	=22
2D;	2A;	.	2f;	.	2dd;	Schoss,?
4G	4B	.	4g	.	4dd	mit
=23	=23	=23	=23	=23	=23	=23
4C	2c	.	2g	.	2ee	rei-
4BB	.	.	.	.	.	.
4AA	4c	.	4a	.	4ee	-chem
=24	=24	=24	=24	=24	=24	=24
4D	2A	.	4f	.	2ff	Trost
4C	.	.	2a	.	.	.
4BB	4d	.	.	.	4ff	be-
=25	=25	=25	=25	=25	=25	=25
4E	4d	.	2.g	.	4.gg	-schÃ¼t-
4D	4B	.	.	.	.	.
.	.	.	.	.	8ffL	.
4C	4c	.	.	.	8ee	.
.	.	.	.	.	8ddJ	.
=26	=26	=26	=26	=26	=26	=26
2F;	2c;	.	2a;	.	2cc;	-tet,
4c	8cL	.	4g	.	4ee	ver-
.	8BJ	.	.	.	.	.
=27	=27	=27	=27	=27	=27	=27
2F#	2A	.	2a	.	4dd	-jÃ¼ngt
.	.	.	.	.	4cc	.
4G	4d	.	4g	.	4b	dem
=28	=28	=28	=28	=28	=28	=28
(4E	(4c	.	2g	Ad-	4cc	Ad-
4C)	4e)	.	.	.	2a	-ler
4D	8dL	.	4f#	-ler	.	.
.	8cJ	.	.	.	.	.
=29	=29	=29	=29	=29	=29	=29
2GG;	2B;	.	2d;	.	2g;	gleich,
8GL	4B	.	4d	.	4g	der
8FJ	.	.	.	.	.	.
=30	=30	=30	=30	=30	=30	=30
4E	4G	.	4e	.	2cc	KÃ¶n'g
4D	4d	.	4f	.	.	.
4C	4e	.	4g	.	4b	schafft
=31	=31	=31	=31	=31	=31	=31
2F	4A	.	4c	.	2a	recht,
.	4B	.	4d	.	.	.
4E	4c	.	4e	.	4g	be-
=32	=32	=32	=32	=32	=32	=32
4D	4B	.	4f	.	4dd	-hÃ¼-
2C	4c	.	8eL	.	4.ee	.
.	.	.	8d	.	.	.
.	4A	.	8e	.	.	.
.	.	.	8f#J	.	8dd	.
=33	=33	=33	=33	=33	=33	=33
2G;	2B;	.	2g;	.	2dd;	-tet,
4c	4c	.	4g	.	4ee	die
=34	=34	=34	=34	=34	=34	=34
(4A	2c	leid'n	4f	leid'n	(4ff	leid'n
4G)	.	.	2g	in	4ee)	.
4F	4B	in	.	.	4dd	in
=35	=35	=35	=35	=35	=35	=35
(4E	2c	.	(4g	sei-	8ccL	sei-
.	.	.	.	.	8ddJ	.
4F)	.	.	4a)	.	(4.ddT	-nem
4G	4B	.	4g	-nem	.	.
.	.	.	.	.	8cc)	.
=36	=36	=36	=36	=36	=36	=36
2C;	2G;	.	2e;	.	2cc;	Reich.
==|!	==|!	==|!	==|!	==|!	==|!	==|!
!!!RNB1: *) "Schoss" spelled "Schooss" in BG.
*-	*-	*-	*-	*-	*-	*-
!!!RWG: Key is interpreted using the Humdrum key tool.
!!!URL-pdf: https://s9.imslp.org/files/imglnks/usimg/6/6b/IMSLP24489-PMLP09471-CCARH_Bach_Chorales.pdf#page=97 Musedata edition
!!!URL-pdf: https://s9.imslp.org/files/imglnks/usimg/7/7a/IMSLP04155-Bach_-_BGA_253-438.pdf#page=76 	Bach-Gesellschaft Ausgabe, Band 39 (pp.175-276) Leipzig: Breitkopf und Härtel, 1892. Plate B.W. XXXIX.
!!!END: 1994/07/19
!!!EMD: Converted from MuseData to Humdrum Dec 19, 2000, by Andreas Kornstaedt using muse2kern.
!!!EED: Craig Stuart Sapp
!!!EEV: 2024/03/31
!!!filter-keyboard: satb2gs
!!!title: @{OTL} (@{SCT})
